lib/flags/aq-antarctica.svg

<svg xmlns="http://www.w3.org/2000/svg" fill="none" aria-hidden="true" viewBox="0 0 42 30"><g id="Country=AQ - Antarctica, Size=sm (36x24)" filter="url(#filter0_dd_91_29839)"><g clip-path="url(#clip0_91_29839)"><g id="flag"><mask id="mask0_91_29839" width="36" height="24" x="3" y="2" maskUnits="userSpaceOnUse" style="mask-type:alpha"><rect id="mask" width="36" height="24" x="3" y="2" fill="white"/></mask><g mask="url(#mask0_91_29839)"><g id="contents"><path id="background" fill="#5196ED" fill-rule="evenodd" d="M3 2V26H39V2H3Z" clip-rule="evenodd"/><mask id="mask1_91_29839" width="36" height="24" x="3" y="2" maskUnits="userSpaceOnUse" style="mask-type:alpha"><path id="background_2" fill="white" fill-rule="evenodd" d="M3 2V26H39V2H3Z" clip-rule="evenodd"/></mask><g mask="url(#mask1_91_29839)"><g id="mark"><path id="land drawing" fill="#F5F8FB" fill-rule="evenodd" d="M12.8069 9.89376C12.8069 9.89376 15.1291 11.0262 15.452 11.3395C15.7748 11.6528 16.2923 12.8032 17.0992 12.1526C17.9063 11.5023 18.7133 12.0079 18.7133 10.9717C18.7133 9.93558 19.9182 7.53204 21.6666 8.13434C23.4151 8.73658 24.8526 8.35982 25.256 8.6006C25.6596 8.84154 26.628 10.038 27.3811 10.038C28.1345 10.038 28.5108 10.7367 28.5648 11.7488C28.6183 12.7609 28.3228 12.8576 29.022 12.9782C29.7215 13.0986 29.9904 13.5566 29.641 14.1589C29.2912 14.7613 29.3179 14.4962 29.3718 15.1228C29.4257 15.7493 28.6726 19.444 26.3587 19.8058C24.0451 20.1671 21.8521 19.9745 22.4442 19.2754C23.036 18.5768 23.8552 17.7727 22.6449 17.604C21.4341 17.4351 20.6712 17.2915 19.4605 17.5806C18.2498 17.8698 16.9855 18.3274 16.232 17.4602C15.4789 16.5926 15.6405 15.9661 15.0217 15.5564C14.4031 15.1468 13.6495 15.2191 14.2686 14.4239C14.8869 13.6287 15.398 13.9256 14.8869 13.2991C14.3762 12.6728 12.4469 12.3998 12.4469 11.7735C12.4469 11.1467 11.2198 9.77324 12.8069 9.89376Z" clip-rule="evenodd"/></g></g></g></g></g></g></g><defs><filter id="filter0_dd_91_29839" width="42" height="30" x="0" y="0" color-interpolation-filters="sRGB" filterUnits="userSpaceOnUse"><feFlood flood-opacity="0" result="BackgroundImageFix"/><feColorMatrix in="SourceAlpha" result="hardAlpha" values="0 0 0 0 0 0 0 0 0 0 0 0 0 0 0 0 0 0 127 0"/><feOffset dy="1"/><feGaussianBlur stdDeviation="1"/><feColorMatrix values="0 0 0 0 0.0627451 0 0 0 0 0.0941176 0 0 0 0 0.156863 0 0 0 0.06 0"/><feBlend in2="BackgroundImageFix" result="effect1_dropShadow_91_29839"/><feColorMatrix in="SourceAlpha" result="hardAlpha" values="0 0 0 0 0 0 0 0 0 0 0 0 0 0 0 0 0 0 127 0"/><feOffset dy="1"/><feGaussianBlur stdDeviation="1.5"/><feColorMatrix values="0 0 0 0 0.0627451 0 0 0 0 0.0941176 0 0 0 0 0.156863 0 0 0 0.1 0"/><feBlend in2="effect1_dropShadow_91_29839" result="effect2_dropShadow_91_29839"/><feBlend in="SourceGraphic" in2="effect2_dropShadow_91_29839" result="shape"/></filter><clipPath id="clip0_91_29839"><rect width="36" height="24" x="3" y="2" fill="white" rx="2"/></clipPath></defs></svg>

<svg xmlns="http://www.w3.org/2000/svg" fill="none" aria-hidden="true" viewBox="0 0 42 30"><g filter="url(#a)"><g clip-path="url(#b)"><mask id="c" width="36" height="24" x="3" y="2" maskUnits="userSpaceOnUse" style="mask-type:alpha"><path fill="#fff" d="M3 2h36v24H3z"/></mask><g mask="url(#c)"><path fill="#5196ED" fill-rule="evenodd" d="M3 2v24h36V2H3Z" clip-rule="evenodd"/><mask id="d" width="36" height="24" x="3" y="2" maskUnits="userSpaceOnUse" style="mask-type:alpha"><path fill="#fff" fill-rule="evenodd" d="M3 2v24h36V2H3Z" clip-rule="evenodd"/></mask><g mask="url(#d)"><path fill="#F5F8FB" fill-rule="evenodd" d="M12.807 9.894s2.322 1.132 2.645 1.445c.323.314.84 1.464 1.647.814s1.614-.145 1.614-1.181 1.205-3.44 2.954-2.838c1.748.603 3.186.226 3.589.467.404.24 1.372 1.437 2.125 1.437.753 0 1.13.699 1.184 1.71.053 1.013-.242 1.11.457 1.23.7.12.968.579.619 1.18-.35.603-.323.338-.27.965.055.626-.698 4.321-3.012 4.683-2.314.361-4.507.168-3.915-.53.592-.7 1.411-1.503.2-1.672-1.21-.169-1.973-.313-3.183-.023-1.211.289-2.476.746-3.229-.12-.753-.868-.591-1.495-1.21-1.905-.619-.41-1.373-.337-.753-1.132.618-.795 1.129-.498.618-1.125-.51-.626-2.44-.9-2.44-1.525 0-.627-1.227-2 .36-1.88Z" clip-rule="evenodd"/></g></g></g></g><defs><clipPath id="b"><rect width="36" height="24" x="3" y="2" fill="#fff" rx="2"/></clipPath><filter id="a" width="42" height="30" x="0" y="0" color-interpolation-filters="sRGB" filterUnits="userSpaceOnUse"><feFlood flood-opacity="0" result="BackgroundImageFix"/><feColorMatrix in="SourceAlpha" result="hardAlpha" values="0 0 0 0 0 0 0 0 0 0 0 0 0 0 0 0 0 0 127 0"/><feOffset dy="1"/><feGaussianBlur stdDeviation="1"/><feColorMatrix values="0 0 0 0 0.0627451 0 0 0 0 0.0941176 0 0 0 0 0.156863 0 0 0 0.06 0"/><feBlend in2="BackgroundImageFix" result="effect1_dropShadow_91_29839"/><feColorMatrix in="SourceAlpha" result="hardAlpha" values="0 0 0 0 0 0 0 0 0 0 0 0 0 0 0 0 0 0 127 0"/><feOffset dy="1"/><feGaussianBlur stdDeviation="1.5"/><feColorMatrix values="0 0 0 0 0.0627451 0 0 0 0 0.0941176 0 0 0 0 0.156863 0 0 0 0.1 0"/><feBlend in2="effect1_dropShadow_91_29839" result="effect2_dropShadow_91_29839"/><feBlend in="SourceGraphic" in2="effect2_dropShadow_91_29839" result="shape"/></filter></defs></svg>
